X:400
T: Entschwundenes Glck (124), 1. Melodie, S.284
N: T0289
O: Luxemburg
S: Singendes Volk, Esch-Alzette 1937 posth.]
N: Esch-Alzette, fff Franziska Mller-Mller, 14.1.1914
R: Liebeslieder]
M: 3/4
L: 1/8
K: D
F2 | F2F2F2 | EFG2
EF | G2A2BA | A2z2
FG | A2F2BA | AEE2
Ad | cBA2G2 | F2z2

@@@ Tune index: 8454
